X: 21
T:Biddy The Bowl Wife
% Nottingham Music Database
S:FTB 2 34, via EF
Y:AB
M:6/8
K:A
P:A
c|"A"EAc e2f|"A"ecA a2f|"A"ecA EAc|"D"dcd "E7"B2c|
"A"EAc e2f|"A"ecA a2f|"A"ecA EAc|"E7"B3 "A"A2:|
P:B
e|"A"efe a2g|"D"bag fga|"A"ecA EAc|"E7"dcd B2e|
"A"efe a2g|"D"bag fga|"A"ecA EAc|"E7"B3 "A"A2:|


